cssgg/push-left.svg

<svg
  width="24"
  height="24"
  viewBox="0 0 24 24"
  fill="none"
  xmlns="http://www.w3.org/2000/svg"
>
  <path
    d="M22.2877 11.0001V13.0001H7.80237L11.045 16.2428L9.63079 17.657L3.97394 12.0001L9.63079 6.34326L11.045 7.75748L7.80236 11.0001H22.2877Z"
    fill="currentColor"
  />
  <path d="M3 18V6H1V18H3Z" fill="currentColor" />
</svg>

<svg viewBox="0 0 24 24" xmlns="http://www.w3.org/2000/svg"><g><path d="M22.28 11v2H7.79l3.24 3.24 -1.42 1.41 -5.66-5.66L9.6 6.33l1.41 1.41 -3.25 3.24h14.48Z"/><path d="M3 18V6H1v12h2Z"/></g></svg>
